X: 1
T: Johnny, Don't Get Drunk
M: C|
L: 1/8
R: reel
S: Roaring Jelly collection
Z: 2010 John Chambers <jc:trillian.mit.edu>
F:http://jc.tzo.net/~jc/music/abc/reel/JohnnyDontGetDrunk1_D.abc	
K: D
|: "D"fefg a2g2 | "A7"fdec "D"d4 | "G"BABc dBAG | "A7"F2E2 E4 | 
|: "D"F2A2 A4 | FA2F A4 | "G"BABc dBAG | "A7"F2E2 E4 |  

